X:94
T:Hark hark the dogs do bark - The Thrush
%%VWML:SBG-1-2-730-0
F:http://www.vwml.org/record/SBG/1/2/730
Z:Original Sibelius transcriptions by M. & S. Graebe
M:6/8
I:linebreak $
K:C
V:1 treble nm="P1"
V:1
 G/F/ | (EG) c c2 c | c2 z2 z e | e d c (cB) c | (e3 d2) G | c c c d c d | (ef) g z2 g |$ %7
 g e c c B c | (e3 d2) z | c2 c d c d | e f g z3 | c2 c d c d | e3 z3 |$ c c c d c d | e f g z3 | %15
 G3/2 A/ G G A B | c3 z3 | G3/2 A/ G G A B | c2 z z2 x | %19
T:Hark hark the dogs do bark - The Devil's Dream
F:http://www.vwml.org/record/SBG/1/2/
Z:Original Sibelius transcriptions by M. & S. Graebe
M:3/2
I:linebreak $
K:F
V:1 treble nm="P1"
V:1
 G3 G2 A | F3/2 E/ F G2 G | A2 B c d A | (B3 B2) :: d |$ ^^c2 d ^^c2 d | ^^c2 d =c3/2 B/ A | %7
 B A G ^^F3/2 E/ =F | (G3 G2) x | %9

